X:583
T:When the Cock Crows it it Day.
T:air galo.da.c an coileai.g ata se la.
R:jig
N:"Boldly.""1st Setting."
B:O'Neill's 583
Z:transcribed by J.B. Walsh, walsh@math.ubc.ca
M:6/8
L:1/8
<START_ANN> %Q:100 <END_ANN>
K:Gm
G|Bcd cBG|G3 G2G|Bcd gfd|c3 cdf|
gag fed|edc dBG|Bcd cBG|FAG3 G2||
B|FED FED|B3 B2G|FED FED|c3 cdf|
gag fed|efedc dBG|"~"Bcd cBG|FGAG3 G2||
